X: 10092
M: C|	% Should be C or 4/4
L: 1/8
K: F
fccc fccc | d>c df g2 zf |\
f>a d>f c>f cA |
fccc fccc | d>c df g2 zf |\
fa d>f c>f cA | G>F GE F2 z |]


